X:1
T:Over the Line
T:Over the Line
T:Edward Hunt Phelps
T:Ellen Knight Bradford, 1878
T:Public Domain Courtesy of the Cyber Hymnal™
C:Edward Hunt Phelps
Z:Public Domain
Z:Courtesy of the Cyber Hymnal™
%%score ( 1 2 ) ( 3 4 )
L:1/8
Q:1/4=92
M:6/8
K:Ab
V:1 treble 
V:2 treble 
V:3 bass 
V:4 bass 
V:1
 (E/E/) | ([Ac]>[EB])[EA] [CE][=B,=D][CE] | [DF]>[DF][DF] [Fd]2 (E/E/) | [DF]>[DG][EA] [DB]2 [Ec] | %4
w: 1.~Oh, *|tender * and sweet was the|Ma- s- ter’s voice As~He *|lov- ing- ly called to|
w: 2.~But~my *|sins * are m- a- ny,|my faith is small; Lo!~the *|an- swer came quick and|
w: 3.~But~my *|flesh * is we- ak, I|tear- ful- ly said, And~the *|wa- y I can- not|
w: 4.~Ah,~the *|world * is cold, and I|can- not go back, Press *|for- ward I sure- ly|
 [CA]3- [CA]2 ([CE]/[CE]/) | ([Ec]>[DB])[CA] [CE][=B,=D][CE] | ([DF][DF])[Fd] [Ec]2 ([Ec]/[Ec]/) | %7
w: me, * “Come *|over * the line, it is|only * a step— I~am *|
w: clear; * “Thou *|need- * est not trust in|thyself * at all, Step *|
w: see; * I *|fear * if~I try I may|sa- * dly fail, And *|
w: must; * I~will *|place * my hand in His|wound- * ed palm, Step *|
 [Ac][GB][Ac] [A-d][Ac][Fd] | [Ge]3- [Ge]2 z ||"^Refrain" E>[EF][DG] [CA][EB][Ec] | %10
w: wait- ing, My child, * for|thee.” *||
w: o- ver the line, * I~am|here.” *|“O- ver the line,” hear the|
w: thus may dis- hon- * or|Thee. *|~ ~ ~ ~ ~ ~|
w: o- ver the line, * and|trust. *||
 (de)[Ed] [Ec]2 z | [Ac]>[GB][FA] [FA][=EG][FA] | [FB][FA][FB] [=Ec]2 z | %13
w: |||
w: sweet * re- frain,|An- gels are chant- ing the|heav- en- ly strain:|
w: ~ * ~ ~|~ ~ ~ ~ ~ ~|~ ~ ~ 4.~v|
w: |||
 [Ec]>[DB][CA] [CE]2 [CE] | [DF][DF][Fd] [Ec]2 (E/E/) | [DF]>[DG][EA] [DB]2 [Ec] | [CA]3 [CA]2 |] %17
w: ||||
w: “O- ver the line,” why|should I re- main With~a *|step be- tween me and|Je- sus.|
w: “O- ver the line,” I|will not re- main; I’ll *|cross it and go to|Je- sus.|
w: ||||
V:2
 E/E/ | x6 | x5 E/E/ | x6 | x6 | x6 | x6 | x6 | x6 || E3/2 x9/2 | E2 x4 | x6 | x6 | x6 | x5 E/E/ | %15
 x6 | x5 |] %17
V:3
 ([A,,C]/[A,,C]/) | ([A,,E]>[A,,D])[A,,C] [A,,A,][A,,A,][A,,A,] | %2
 [D,A,]>[D,A,][D,A,] [D,A,]2 ([C,A,]/[C,A,]/) | [D,A,]>[D,B,][C,A,] [B,,F,]2 E, | %4
 [A,,E,]3- [A,,E,]2 ([A,,A,]/[A,,A,]/) | ([A,,A,]>[A,,E,])[A,,E,] [A,,A,][A,,A,][A,,A,] | %6
 ([D,A,][D,A,])[D,A,] [A,,A,]2 A,/A,/ | [F,C][F,C][F,C] [B,,B,][B,,B,][B,,B,] | %8
 [E,B,]3- [E,B,]2 z || [E,G,]>[E,A,][E,B,] [E,A,][E,G,][E,A,] | (B,C)[E,B,] A,2 z | %11
 [F,C]>[F,C][F,C] [F,C][F,C][F,C] | [D,D][D,A,][D,F,] [C,G,]2 z | %13
 [A,,A,]>[A,,E,][A,,E,] [A,,A,]2 [A,,A,] | [A,,A,][A,,A,][A,,A,] [A,,A,]2 ([C,A,]/[C,A,]/) | %15
 [D,A,]>[D,B,][C,A,] [B,,F,]2 E, | [A,,E,]3 [A,,E,]2 |] %17
V:4
 x | x6 | x6 | x5 E, | x6 | x6 | x5 (A,/A,/) | x6 | x6 || x6 | E,2 A,2 x2 | x6 | x6 | x6 | x6 | %15
 x5 E, | x5 |] %17

